X: 173
T: Polska efter Omas Per
O: Transtrand, Dalarna
S:Efter [[!Omas Per]]
Z:Transcribed to abcby Jon Magnusson 080429
R: Polska
M: 3/4
L: 1/8
K: A
A/2B/2c/2d/2 e2 c>e|(3:2:5 g2gagf e2|ef/2e/2 dc BA|(3 GBA (3 BAG E2|
A/2B/2c/2d/2 e2 c>e|(3:2:5 g2gagf e2|ef/2e/2 dc BA|(3 GBA- A4:|:
[K: Am] Ac/2e/2 gg/2e/2 c2|(5 cBcdc B>A|^GB A/2B/2A/2G/2 E2|
Ac/2e/2 gg/2e/2 c2|(5 cBcdc B>A|(3 ^GBA- A4:|
(:musicend:)

(:music:)
